symbols/web/30fps_select/materialsymbolsrounded/30fps_select_wght600grad200_24px.svg

<svg xmlns="http://www.w3.org/2000/svg" height="24" width="24"><path d="M4.65 14.7q-.575 0-1-.413-.425-.412-.425-1.012 0-.6.425-1.013.425-.412 1-.412h3.625v-1.3H4.55q-.55 0-.938-.375-.387-.375-.387-.95 0-.55.387-.938Q4 7.9 4.55 7.9h3.725V6.6H4.65q-.575 0-1-.413-.425-.412-.425-1.012 0-.575.425-1 .425-.425 1-.425h3.625q1.2 0 2.025.825t.825 2.025v1.025q0 .65-.363 1.05-.362.4-1.037.525.675.15 1.037.562.363.413.363 1.088v1q0 1.225-.825 2.037-.825.813-2.025.813Zm13.7 0h-2.625q-1.2 0-2.025-.813-.825-.812-.825-2.037V6.6q0-1.2.825-2.025t2.025-.825h2.625q1.2 0 2.025.825T21.2 6.6v5.25q0 1.225-.825 2.037-.825.813-2.025.813Zm0-2.85V6.6h-2.625v5.25ZM2.95 22.4q-.5 0-.837-.338-.338-.337-.338-.837V18.1q0-.5.325-.837.325-.338.825-.338.5 0 .838.338.337.337.337.837v3.125q0 .5-.325.837-.325.338-.825.338Zm4.3 0q-.475 0-.812-.338-.338-.337-.338-.837V18.1q0-.5.325-.837.325-.338.825-.338.5 0 .838.338.337.337.337.837v3.125q0 .5-.325.837-.325.338-.85.338Zm4.325 0q-.5 0-.825-.338-.325-.337-.325-.837V18.1q0-.5.325-.837.325-.338.825-.338.5 0 .825.338.325.337.325.837v3.125q0 .5-.325.837-.325.338-.825.338Zm4.675 0q-.65 0-1.087-.45-.438-.45-.438-1.075V18.45q0-.625.438-1.075.437-.45 1.087-.45h4.45q.65 0 1.088.45.437.45.437 1.075v2.425q0 .625-.437 1.075-.438.45-1.088.45Z"/></svg>

<svg xmlns="http://www.w3.org/2000/svg" height="24" width="24"><path d="M4.65 14.7Q4.075 14.7 3.65 14.287Q3.225 13.875 3.225 13.275Q3.225 12.675 3.65 12.262Q4.075 11.85 4.65 11.85H8.275Q8.275 11.85 8.275 11.85Q8.275 11.85 8.275 11.85V10.55Q8.275 10.55 8.275 10.55Q8.275 10.55 8.275 10.55H4.55Q4 10.55 3.612 10.175Q3.225 9.8 3.225 9.225Q3.225 8.675 3.612 8.287Q4 7.9 4.55 7.9H8.275Q8.275 7.9 8.275 7.9Q8.275 7.9 8.275 7.9V6.6Q8.275 6.6 8.275 6.6Q8.275 6.6 8.275 6.6H4.65Q4.075 6.6 3.65 6.187Q3.225 5.775 3.225 5.175Q3.225 4.6 3.65 4.175Q4.075 3.75 4.65 3.75H8.275Q9.475 3.75 10.3 4.575Q11.125 5.4 11.125 6.6V7.625Q11.125 8.275 10.762 8.675Q10.4 9.075 9.725 9.2Q10.4 9.35 10.762 9.762Q11.125 10.175 11.125 10.85V11.85Q11.125 13.075 10.3 13.887Q9.475 14.7 8.275 14.7ZM18.35 14.7H15.725Q14.525 14.7 13.7 13.887Q12.875 13.075 12.875 11.85V6.6Q12.875 5.4 13.7 4.575Q14.525 3.75 15.725 3.75H18.35Q19.55 3.75 20.375 4.575Q21.2 5.4 21.2 6.6V11.85Q21.2 13.075 20.375 13.887Q19.55 14.7 18.35 14.7ZM18.35 11.85Q18.35 11.85 18.35 11.85Q18.35 11.85 18.35 11.85V6.6Q18.35 6.6 18.35 6.6Q18.35 6.6 18.35 6.6H15.725Q15.725 6.6 15.725 6.6Q15.725 6.6 15.725 6.6V11.85Q15.725 11.85 15.725 11.85Q15.725 11.85 15.725 11.85ZM2.95 22.4Q2.45 22.4 2.113 22.062Q1.775 21.725 1.775 21.225V18.1Q1.775 17.6 2.1 17.263Q2.425 16.925 2.925 16.925Q3.425 16.925 3.763 17.263Q4.1 17.6 4.1 18.1V21.225Q4.1 21.725 3.775 22.062Q3.45 22.4 2.95 22.4ZM7.25 22.4Q6.775 22.4 6.438 22.062Q6.1 21.725 6.1 21.225V18.1Q6.1 17.6 6.425 17.263Q6.75 16.925 7.25 16.925Q7.75 16.925 8.088 17.263Q8.425 17.6 8.425 18.1V21.225Q8.425 21.725 8.1 22.062Q7.775 22.4 7.25 22.4ZM11.575 22.4Q11.075 22.4 10.75 22.062Q10.425 21.725 10.425 21.225V18.1Q10.425 17.6 10.75 17.263Q11.075 16.925 11.575 16.925Q12.075 16.925 12.4 17.263Q12.725 17.6 12.725 18.1V21.225Q12.725 21.725 12.4 22.062Q12.075 22.4 11.575 22.4ZM16.25 22.4Q15.6 22.4 15.163 21.95Q14.725 21.5 14.725 20.875V18.45Q14.725 17.825 15.163 17.375Q15.6 16.925 16.25 16.925H20.7Q21.35 16.925 21.788 17.375Q22.225 17.825 22.225 18.45V20.875Q22.225 21.5 21.788 21.95Q21.35 22.4 20.7 22.4Z"/></svg>
